icons/settings_h.svg

<?xml version="1.0" encoding="UTF-8"?>
<svg   viewBox="0 0 24 24" version="1.1" xmlns="http://www.w3.org/2000/svg" xmlns:xlink="http://www.w3.org/1999/xlink">
    <g id="🔍-Product-Icons" stroke="none" stroke-width="1" fill="none" fill-rule="evenodd">
        <g id="ic_fluent_settings_24_filled" fill="#304d66" fill-rule="nonzero">
            <path d="M12.0124778,2.25004981 C12.7464561,2.25850931 13.4775625,2.34331189 14.1939893,2.50308791 C14.5067308,2.57283489 14.7406198,2.83356075 14.7761194,3.15201278 L14.9463241,4.67885731 C15.0233647,5.37990957 15.6152692,5.91089096 16.3209275,5.91163079 C16.5105994,5.91192723 16.6982236,5.8724274 16.8734931,5.79488275 L18.2741165,5.17960888 C18.5654231,5.05164206 18.9057701,5.12140804 19.1232362,5.35366556 C20.1354163,6.43469153 20.8892426,7.73119861 21.327994,9.14563241 C21.4226025,9.45062817 21.3137138,9.78208282 21.0566646,9.9715529 L19.8151844,10.8866429 C19.4610446,11.1468395 19.2518879,11.5600547 19.2518879,11.9995059 C19.2518879,12.438957 19.4610446,12.8521723 19.8159631,13.1129417 L21.0585161,14.0283492 C21.3156542,14.2177866 21.424614,14.5492871 21.3300078,14.8543382 C20.8914192,16.2685371 20.1380215,17.5649441 19.1264267,18.6461445 C18.9091604,18.8783604 18.5690663,18.9483128 18.2777879,18.8206973 L16.8714553,18.2045515 C16.4691374,18.0284918 16.0070651,18.0542838 15.62684,18.2740235 C15.2466148,18.4937632 14.9935731,18.8812498 14.9452542,19.3177822 L14.776179,20.8444618 C14.7413156,21.1592635 14.5124557,21.4182309 14.2043301,21.4915398 C12.7558808,21.8361534 11.2467854,21.8361534 9.79833608,21.4915398 C9.49021045,21.4182309 9.26135058,21.1592635 9.22648722,20.8444618 L9.0576652,19.3200377 C9.00807734,18.8843357 8.75464533,18.4980265 8.37472926,18.2790311 C7.99481318,18.0600358 7.53350779,18.0343481 7.13250482,18.2094252 L5.7258787,18.8256995 C5.43452472,18.9533482 5.0943393,18.8833238 4.87708632,18.6509825 C3.86492915,17.5685306 3.11149836,16.270585 2.67350518,14.8548427 C2.57916657,14.5499084 2.688166,14.2186739 2.94515048,14.0293496 L4.18848222,13.1133693 C4.54262206,12.8531727 4.75177873,12.4399574 4.75177873,12.0005063 C4.75177873,11.5610552 4.54262206,11.1478399 4.18801888,10.8873026 L2.94546579,9.97289561 C2.68810018,9.78349773 2.57900047,9.45183111 2.67367169,9.14663286 C3.11242314,7.73219906 3.8662494,6.43569197 4.87842956,5.35466601 C5.09589562,5.12240848 5.43624261,5.0526425 5.72754921,5.18060933 L7.12792442,5.79577421 C7.53086629,5.97260708 7.9941044,5.94589569 8.37607497,5.7227409 C8.75639478,5.50213708 9.00959105,5.1142722 9.05847199,4.67769189 L9.2285477,3.15201278 C9.26406522,2.83339973 9.49816738,2.57259043 9.81110802,2.5029921 C10.528382,2.34346958 11.2602557,2.25870353 12.0124778,2.25004981 Z M12,9 C10.3431458,9 9,10.3431458 9,12 C9,13.6568542 10.3431458,15 12,15 C13.6568542,15 15,13.6568542 15,12 C15,10.3431458 13.6568542,9 12,9 Z" id="🎨-Color"></path>
        </g>
    </g>
</svg>

<svg width="24" height="24" fill="none" viewBox="0 0 24 24" xmlns="http://www.w3.org/2000/svg"><path d="M12.012 2.25c.734.008 1.465.093 2.182.253a.75.75 0 0 1 .582.649l.17 1.527a1.384 1.384 0 0 0 1.927 1.116l1.401-.615a.75.75 0 0 1 .85.174 9.792 9.792 0 0 1 2.204 3.792.75.75 0 0 1-.271.825l-1.242.916a1.381 1.381 0 0 0 0 2.226l1.243.915a.75.75 0 0 1 .272.826 9.797 9.797 0 0 1-2.204 3.792.75.75 0 0 1-.848.175l-1.407-.617a1.38 1.38 0 0 0-1.926 1.114l-.169 1.526a.75.75 0 0 1-.572.647 9.518 9.518 0 0 1-4.406 0 .75.75 0 0 1-.572-.647l-.168-1.524a1.382 1.382 0 0 0-1.926-1.11l-1.406.616a.75.75 0 0 1-.849-.175 9.798 9.798 0 0 1-2.204-3.796.75.75 0 0 1 .272-.826l1.243-.916a1.38 1.38 0 0 0 0-2.226l-1.243-.914a.75.75 0 0 1-.271-.826 9.793 9.793 0 0 1 2.204-3.792.75.75 0 0 1 .85-.174l1.4.615a1.387 1.387 0 0 0 1.93-1.118l.17-1.526a.75.75 0 0 1 .583-.65c.717-.159 1.45-.243 2.201-.252ZM12 9a3 3 0 1 0 0 6 3 3 0 0 0 0-6Z" fill="#304d66"/></svg>
